;generated by ffslicer 2.4.4 05/05/25 13:02:50
;gcode_flavor: flashforge
;machine_type: Adventurer 4 Pro
;right_extruder_material: PLA
;right_extruder_material_density: 1.24
;filament_diameter0: 1.75
;right_extruder_temperature: 225
;layer_height: 0.2
;perimeter_shells: 2
;top_solid_layers: 4
;bottom_solid_layers: 2
;fill_density: 12%
;fill_pattern: triangle
;base_print_speed: 200
;travel_speed: 200
;platform_temperature: 50
;right_extruder_temperature_raft0: 230
;right_extruder_temperature_reset: 
;left_extruder_temperature_reset: 
;layer_total_count: 339
;start gcode
M118 X35.55 Y35.60 Z68.36 T0
M140 S50 T0
M104 S230 T0
M104 S0 T1
M107
M204 S10000
M900 K0.000 T0
G90
G28
M132 X Y Z A B
G1 Z50.000 F300
G161 X Y F3300
M7 T0
M6 T0
M651 S128
;layer_count: 339
M108 T0
G1 X32.41 Y6.97 F12000
;preExtrude:0.20
G1 Z0.200 F300
;structure:pre-extrude
M204 S8000
G1 X32.41 Y6.97 F12000
M204 S10000
G1 X31.40 Y10.15 E0.4306 F1200
G1 X30.58 Y12.12 E0.7059
G1 X30.13 Y12.79 E0.8101
G1 X24.62 Y18.91 E1.8728
G1 X24.11 Y19.43 E1.9668
G1 X21.89 Y21.00 E2.3177
G1 X19.87 Y22.29 E2.6270
G1 X11.74 Y25.42 E3.7512
G1 X11.06 Y25.56 E3.8408
G1 X-2.34 Y26.85 E5.5781
G1 X-4.44 Y26.85 E5.8491
G1 X-6.48 Y26.61 E6.1142
G1 X-8.31 Y26.23 E6.3554
G1 X-12.05 Y25.24 E6.8546
G1 X-12.92 Y24.89 E6.9757
G1 X-20.50 Y21.30 E8.0580
G1 X-23.24 Y19.84 E8.4587
G1 X-24.09 Y18.99 E8.6138
G1 X-26.27 Y16.37 E9.0537
G1 X-31.48 Y9.39 E10.1777
G1 X-31.87 Y8.81 E10.2679
G1 X-32.67 Y6.85 E10.5411
G1 X-33.79 Y3.50 E10.9969
G1 X-35.40 Y-1.74 E11.7043
G1 X-35.55 Y-2.50 E11.8043
G1 X-35.55 Y-4.63 E12.0792
G1 X-34.42 Y-18.78 E13.9110
G1 X-34.26 Y-19.56 E14.0138
G1 X-33.42 Y-21.60 E14.2985
G1 X-33.01 Y-22.21 E14.3933
G1 X-30.26 Y-25.99 E14.9966
G1 X-28.73 Y-27.52 E15.2758
G1 X-28.11 Y-27.93 E15.3717
G1 X-23.48 Y-30.80 E16.0747
G1 X-21.52 Y-31.61 E16.3484
G1 X-17.98 Y-32.71 E16.8268
G1 X-17.32 Y-32.84 E16.9136
G1 X-6.44 Y-34.66 E18.3371
G1 X-0.73 Y-35.60 E19.0839
G1 X1.39 Y-35.60 E19.3575
;raft
;layer:0.40
;support-start
G1 E14.8575 F1800
G1 Z0.600 F300
G1 Z0.600
M204 S8000
G1 X1.90 Y-34.18 F12000
G1 Z0.400 F300
G1 E19.3575 F1800
;structure:raft
G1 X1.90 Y-34.18 F4200
M204 S10000
G1 X3.71 Y-33.43 E19.6736 F900
G1 X4.46 Y-32.84 E19.8275
G1 X5.03 Y-32.95 E19.9211
G1 X6.99 Y-32.95 E20.2373
G1 X7.56 Y-32.84 E20.3310
G1 X9.37 Y-32.08 E20.6476
G1 X9.83 Y-31.78 E20.7362
G1 X10.22 Y-31.89 E20.8016
G1 X10.71 Y-32.22 E20.8969
G1 X12.51 Y-32.97 E21.2114
G1 X13.08 Y-33.08 E21.3051
G1 X15.04 Y-33.08 E21.6213
G1 X15.61 Y-32.97 E21.7149
G1 X17.42 Y-32.21 E22.0316
G1 X17.90 Y-31.89 E22.1246
G1 X18.90 Y-30.89 E22.3528
G1 X19.59 Y-30.78 E22.4655
G1 X21.40 Y-30.02 E22.7821
G1 X21.88 Y-29.70 E22.8752
G1 X23.25 Y-28.33 E23.1877
G1 X23.58 Y-27.84 E23.2830
G1 X23.94 Y-26.96 E23.4364
G1 X25.21 Y-26.96 E23.6413
G1 X25.78 Y-26.84 E23.7352
G1 X27.59 Y-26.09 E24.0513
G1 X28.08 Y-25.76 E24.1466
G1 X29.44 Y-24.39 E24.4580
G1 X29.77 Y-23.91 E24.5519
G1 X30.52 Y-22.11 E24.8665
G1 X30.60 Y-21.71 E24.9323
G1 X31.00 Y-21.31 E25.0235
G1 X31.32 Y-20.83 E25.1166
G1 X32.07 Y-19.03 E25.4312
G1 X32.19 Y-18.45 E25.5267
G1 X32.19 Y-16.49 E25.8429
G1 X32.07 Y-15.91 E25.9384
G1 X31.76 Y-15.17 E26.0678
G1 X32.12 Y-14.10 E26.2499
G1 X32.86 Y-12.46 E26.5402
G1 X32.97 Y-11.89 E26.6338
G1 X32.97 Y-10.91 E26.7919
G1 X33.66 Y-10.06 E26.9685
G1 X34.41 Y-8.27 E27.2816
G1 X34.52 Y-7.70 E27.3752
G1 X34.52 Y-5.73 E27.6930
G1 X34.41 Y-5.15 E27.7882
G1 X34.00 Y-4.19 E27.9566
G1 X34.00 Y-2.64 E28.2067
G1 X33.89 Y-2.07 E28.3003
G1 X33.05 Y-0.14 E28.6399
G1 X32.68 Y1.85 E28.9664
G1 X32.47 Y2.38 E29.0583
G1 X31.40 Y4.00 E29.3715
G1 X31.28 Y5.05 E29.5420
G1 X30.94 Y5.72 E29.6632
G1 X30.97 Y6.16 E29.7343
G1 X30.85 Y6.74 E29.8299
G1 X30.29 Y8.08 E30.0641
G1 X30.29 Y9.13 E30.2335
G1 X30.18 Y9.70 E30.3272
G1 X29.43 Y11.50 E30.6417
G1 X29.10 Y11.99 E30.7370
G1 X27.73 Y13.35 E31.0484
G1 X27.25 Y13.68 E31.1424
G1 X25.80 Y14.29 E31.3961
G1 X25.35 Y14.97 E31.5277
G1 X25.06 Y15.27 E31.5950
G1 X24.94 Y15.88 E31.6953
G1 X24.72 Y16.41 E31.7878
G1 X23.67 Y18.02 E32.0979
G1 X23.26 Y18.44 E32.1926
G1 X21.55 Y19.53 E32.5197
G1 X21.16 Y19.92 E32.6087
G1 X19.28 Y21.13 E32.9693
G1 X18.42 Y21.43 E33.1162
G1 X17.16 Y21.44 E33.3195
G1 X16.79 Y21.69 E33.3915
G1 X15.00 Y22.43 E33.7040
G1 X14.20 Y22.53 E33.8340
G1 X13.94 Y22.80 E33.8945
G1 X11.37 Y24.17 E34.3643
G1 X10.87 Y24.27 E34.4466
G1 X8.93 Y24.27 E34.7595
G1 X8.43 Y24.17 E34.8418
G1 X8.02 Y23.95 E34.9168
G1 X7.34 Y24.26 E35.0374
G1 X5.16 Y24.70 E35.3961
G1 X3.42 Y24.34 E35.6827
G1 X2.64 Y24.02 E35.8187
G1 X2.25 Y24.27 E35.8935
G1 X0.59 Y24.55 E36.1650
G1 X0.16 Y24.55 E36.2344
G1 X-0.28 Y24.82 E36.3177
G1 X-1.90 Y25.45 E36.5981
G1 X-2.40 Y25.55 E36.6803
G1 X-4.36 Y25.55 E36.9965
G1 X-4.87 Y25.45 E37.0803
G1 X-5.53 Y25.18 E37.1953
G1 X-6.27 Y25.33 E37.3171
G1 X-8.01 Y24.97 E37.6038
G1 X-8.76 Y24.66 E37.7347
G1 X-9.30 Y24.24 E37.8450
G1 X-9.91 Y24.36 E37.9453
G1 X-11.64 Y24.01 E38.2300
G1 X-12.40 Y23.70 E38.3624
G1 X-14.55 Y22.02 E38.8026
G1 X-15.00 Y21.93 E38.8766
G1 X-17.55 Y20.57 E39.3428
G1 X-17.88 Y20.24 E39.4181
G1 X-19.41 Y20.24 E39.6649
G1 X-19.91 Y20.14 E39.7472
G1 X-22.46 Y18.78 E40.2133
G1 X-23.13 Y18.11 E40.3662
G1 X-24.19 Y16.44 E40.6853
G1 X-24.59 Y16.23 E40.7581
G1 X-25.25 Y15.56 E40.9099
G1 X-26.44 Y13.68 E41.2688
G1 X-26.58 Y12.88 E41.3998
G1 X-26.80 Y12.66 E41.4500
G1 X-27.98 Y10.78 E41.8080
G1 X-28.02 Y10.56 E41.8441
G1 X-29.02 Y10.03 E42.0267
G1 X-30.42 Y8.64 E42.3449
G1 X-30.71 Y8.19 E42.4313
G1 X-31.45 Y6.39 E42.7452
G1 X-31.56 Y5.87 E42.8309
G1 X-31.56 Y4.69 E43.0213
G1 X-32.33 Y3.63 E43.2326
G1 X-32.56 Y3.10 E43.3258
G1 X-32.96 Y1.19 E43.6406
G1 X-32.92 Y0.38 E43.7714
G1 X-33.39 Y-0.25 E43.8982
G1 X-34.14 Y-2.06 E44.2143
G1 X-34.25 Y-2.63 E44.3079
G1 X-34.25 Y-4.58 E44.6225
G1 X-34.14 Y-5.15 E44.7161
G1 X-33.39 Y-6.96 E45.0322
G1 X-32.77 Y-7.74 E45.1929
G1 X-32.73 Y-8.15 E45.2594
G1 X-33.14 Y-9.15 E45.4337
G1 X-33.26 Y-9.72 E45.5277
G1 X-33.26 Y-11.67 E45.8422
G1 X-33.14 Y-12.25 E45.9378
G1 X-32.62 Y-13.51 E46.1576
G1 X-32.62 Y-15.12 E46.4174
G1 X-33.01 Y-16.08 E46.5845
G1 X-33.13 Y-16.65 E46.6785
G1 X-33.13 Y-18.60 E46.9930
G1 X-33.01 Y-19.18 E47.0886
G1 X-32.26 Y-20.98 E47.4031
G1 X-31.94 Y-21.47 E47.4975
G1 X-30.57 Y-22.84 E47.8101
G1 X-30.26 Y-23.05 E47.8705
G1 X-29.60 Y-24.65 E48.1497
G1 X-29.27 Y-25.14 E48.2450
G1 X-27.90 Y-26.51 E48.5575
G1 X-27.41 Y-26.84 E48.6528
G1 X-25.60 Y-27.59 E48.9688
G1 X-24.90 Y-27.70 E49.0832
G1 X-24.75 Y-27.93 E49.1274
G1 X-23.37 Y-29.31 E49.4423
G1 X-22.88 Y-29.63 E49.5367
G1 X-21.08 Y-30.38 E49.8512
G1 X-20.51 Y-30.50 E49.9452
G1 X-19.77 Y-30.50 E50.0646
G1 X-19.47 Y-30.70 E50.1227
G1 X-17.66 Y-31.45 E50.4388
G1 X-17.09 Y-31.57 E50.5327
G1 X-14.97 Y-31.53 E50.8748
G1 X-14.29 Y-31.82 E50.9940
G1 X-13.72 Y-31.93 E51.0877
G1 X-11.77 Y-31.93 E51.4022
G1 X-11.19 Y-31.82 E51.4975
G1 X-10.62 Y-31.58 E51.5972
G1 X-9.71 Y-31.58 E51.7440
G1 X-9.10 Y-32.19 E51.8832
G1 X-8.61 Y-32.51 E51.9776
G1 X-6.80 Y-33.26 E52.2936
G1 X-6.23 Y-33.38 E52.3876
G1 X-4.53 Y-33.38 E52.6618
G1 X-4.02 Y-33.48 E52.7457
G1 X-2.89 Y-33.48 E52.9279
G1 X-1.20 Y-34.18 E53.2230
G1 X-0.63 Y-34.30 E53.3170
G1 X1.33 Y-34.30 E53.6332
G1 X1.90 Y-34.18 E53.7271
G1 E49.2271 F1800
G1 Z0.600 F300
M204 S8000
G1 X24.99 Y-26.45 F12000
G1 Z0.400 F300
G1 E53.7271 F1800
G1 X24.99 Y-26.45 F4200
M204 S10000
G1 X30.90 Y-20.55 E55.0742 F900
G1 X31.59 Y-18.88 E55.3657
G1 X31.68 Y-18.41 E55.4429
G1 X31.68 Y-16.53 E55.7462
G1 X31.59 Y-16.06 E55.8234
G1 X31.31 Y-15.38 E55.9420
G1 X14.11 Y-32.58 E59.8658
G1 X13.13 Y-32.58 E60.0239
G1 X12.66 Y-32.49 E60.1011
G1 X10.94 Y-31.77 E60.4019
G1 X10.48 Y-31.46 E60.4914
G1 X33.95 Y-7.98 E65.8467
G1 X34.02 Y-7.65 E65.9011
G1 X34.02 Y-5.78 E66.2028
G1 X33.93 Y-5.30 E66.2815
G1 X33.50 Y-4.29 E66.4586
G1 X33.50 Y-3.68 E66.5570
G1 X4.79 Y-32.39 E73.1066
G1 X4.34 Y-32.30 E73.1806
G1 X3.46 Y-32.99 E73.3610
G1 X1.75 Y-33.70 E73.6597
G1 X1.28 Y-33.80 E73.7372
G1 X-0.58 Y-33.80 E74.0372
G1 X-1.21 Y-33.63 E74.1425
G1 X32.50 Y0.07 E81.8316
G1 X32.20 Y1.71 E82.1005
G1 X32.02 Y2.15 E82.1772
G1 X31.15 Y3.47 E82.4323
G1 X-5.20 Y-32.88 E90.7247
G1 X-6.18 Y-32.88 E90.8828
G1 X-6.66 Y-32.78 E90.9619
G1 X-8.38 Y-32.07 E91.2621
G1 X-8.83 Y-31.75 E91.3512
G1 X30.12 Y7.19 E100.2356
G1 X29.79 Y7.98 E100.3738
G1 X29.79 Y9.08 E100.5512
G1 X29.70 Y9.55 E100.6284
G1 X29.11 Y10.94 E100.8720
G1 X-13.26 Y-31.43 E110.5378
G1 X-14.14 Y-31.34 E110.6805
G1 X-14.88 Y-31.03 E110.8099
G1 X-17.04 Y-31.06 E111.1584
G1 X-17.54 Y-30.96 E111.2406
G1 X26.76 Y13.34 E121.3468
G1 X25.46 Y13.88 E121.5738
G1 X24.96 Y14.65 E121.7219
G1 X24.59 Y15.02 E121.8064
G1 X24.44 Y15.78 E121.9313
G1 X-21.15 Y-29.81 E132.3317
G1 X-22.65 Y-29.19 E132.5936
G1 X-23.05 Y-28.92 E132.6714
G1 X-24.03 Y-27.94 E132.8950
G1 X22.34 Y18.43 E143.4733
G1 X21.23 Y19.14 E143.6858
G1 X20.85 Y19.53 E143.7737
G1 X19.53 Y20.37 E144.0261
G1 X-27.21 Y-26.37 E154.6888
G1 X-27.57 Y-26.13 E154.7586
G1 X-28.89 Y-24.82 E155.0586
G1 X-29.40 Y-23.81 E155.2411
G1 X15.91 Y21.51 E165.5788
G1 X14.87 Y21.94 E165.7603
G1 X13.97 Y22.06 E165.9068
G1 X13.64 Y22.40 E165.9832
G1 X12.60 Y22.95 E166.1730
G1 X-31.52 Y-21.17 E176.2381
G1 X-31.82 Y-20.75 E176.3214
G1 X-32.53 Y-19.03 E176.6215
G1 X-32.63 Y-18.56 E176.6990
G1 X-32.63 Y-17.52 E176.8668
G1 X8.58 Y23.68 E186.2669
G1 X8.04 Y23.40 E186.3650
G1 X7.18 Y23.78 E186.5167
G1 X5.16 Y24.19 E186.8492
G1 X4.12 Y23.98 E187.0203
G1 X-32.45 Y-12.60 E195.3641
G1 X-32.76 Y-11.63 E195.5284
G1 X-32.76 Y-9.77 E195.8285
G1 X-32.66 Y-9.30 E195.9060
G1 X-32.22 Y-8.22 E196.0941
G1 X-32.28 Y-7.67 E196.1833
G1 X-0.34 Y24.27 E203.4698
G1 X-2.05 Y24.97 E203.7678
G1 X-2.45 Y25.05 E203.8336
G1 X-4.31 Y25.05 E204.1337
G1 X-33.75 Y-4.39 E210.8498
G1 X-33.75 Y-2.68 E211.1257
G1 X-33.66 Y-2.20 E211.2044
G1 X-32.95 Y-0.50 E211.5016
G1 X-32.41 Y0.23 E211.6481
G1 X-32.45 Y1.14 E211.7950
G1 X-32.32 Y1.80 E211.9035
G1 X-10.35 Y23.76 E216.9144
G1 X-11.50 Y23.52 E217.1039
G1 X-12.15 Y23.26 E217.2168
G1 X-14.34 Y21.55 E217.6651
G1 X-14.83 Y21.45 E217.7457
G1 X-17.25 Y20.16 E218.1881
G1 X-17.67 Y19.74 E218.2839
G1 X-19.13 Y19.74 E218.5194
G1 X-26.09 Y12.78 E220.1072
;support-end
;layer:0.30
;support-start
M104 S225 T0
G1 E215.6072 F1800
G1 Z0.900 F300
G1 Z0.900
M204 S8000
G1 X1.90 Y-34.18 F12000
G1 Z0.700 F300
G1 E220.1072 F1800
G1 X1.90 Y-34.18 F12000
M204 S10000
G1 X3.71 Y-33.43 E220.2020 F1800
G1 X4.46 Y-32.84 E220.2482
G1 X5.03 Y-32.95 E220.2763
G1 X6.99 Y-32.95 E220.3711
G1 X7.56 Y-32.84 E220.3992
G1 X9.37 Y-32.08 E220.4942
G1 X9.83 Y-31.78 E220.5208
G1 X10.22 Y-31.89 E220.5404
G1 X10.71 Y-32.22 E220.5690
G1 X12.51 Y-32.97 E220.6634
G1 X13.08 Y-33.08 E220.6915
G1 X15.04 Y-33.08 E220.7863
G1 X15.61 Y-32.97 E220.8144
G1 X17.42 Y-32.21 E220.9094
G1 X17.90 Y-31.89 E220.9373
G1 X18.90 Y-30.89 E221.0058
G1 X19.59 Y-30.78 E221.0396
G1 X21.40 Y-30.02 E221.1346
G1 X21.88 Y-29.70 E221.1625
G1 X23.25 Y-28.33 E221.2563
G1 X23.58 Y-27.84 E221.2849
G1 X23.94 Y-26.96 E221.3309
G1 X25.21 Y-26.96 E221.3923
G1 X25.78 Y-26.84 E221.4205
G1 X27.59 Y-26.09 E221.5153
G1 X28.08 Y-25.76 E221.5439
G1 X29.44 Y-24.39 E221.6373
G1 X29.77 Y-23.91 E221.6655
G1 X30.52 Y-22.11 E221.7599
G1 X30.60 Y-21.71 E221.7796
G1 X31.00 Y-21.31 E221.8070
G1 X31.32 Y-20.83 E221.8349
G1 X32.07 Y-19.03 E221.9293
G1 X32.19 Y-18.45 E221.9580
G1 X32.19 Y-16.49 E222.0528
G1 X32.07 Y-15.91 E222.0815
G1 X31.76 Y-15.17 E222.1203
G1 X32.12 Y-14.10 E222.1749
G1 X32.86 Y-12.46 E222.2620
G1 X32.97 Y-11.89 E222.2901
G1 X32.97 Y-10.91 E222.3375
G1 X33.66 Y-10.06 E222.3905
G1 X34.41 Y-8.27 E222.4844
G1 X34.52 Y-7.70 E222.5125
G1 X34.52 Y-5.73 E222.6079
G1 X34.41 Y-5.15 E222.6364
G1 X34.00 Y-4.19 E222.6869
G1 X34.00 Y-2.64 E222.7619
G1 X33.89 Y-2.07 E222.7901
G1 X33.05 Y-0.14 E222.8919
G1 X32.68 Y1.85 E222.9899
G1 X32.47 Y2.38 E223.0175
G1 X31.40 Y4.00 E223.1114
G1 X31.28 Y5.05 E223.1626
G1 X30.94 Y5.72 E223.1989
G1 X30.97 Y6.16 E223.2202
G1 X30.85 Y6.74 E223.2489
G1 X30.29 Y8.08 E223.3192
G1 X30.29 Y9.13 E223.3700
G1 X30.18 Y9.70 E223.3981
G1 X29.43 Y11.50 E223.4925
G1 X29.10 Y11.99 E223.5211
G1 X27.73 Y13.35 E223.6145
G1 X27.25 Y13.68 E223.6427
G1 X25.80 Y14.29 E223.7188
G1 X25.35 Y14.97 E223.7583
G1 X25.06 Y15.27 E223.7784
G1 X24.94 Y15.88 E223.8085
G1 X24.72 Y16.41 E223.8363
G1 X23.67 Y18.02 E223.9293
G1 X23.26 Y18.44 E223.9577
G1 X21.55 Y19.53 E224.0558
G1 X21.16 Y19.92 E224.0825
G1 X19.28 Y21.13 E224.1907
G1 X18.42 Y21.43 E224.2348
G1 X17.16 Y21.44 E224.2958
G1 X16.79 Y21.69 E224.3174
G1 X15.00 Y22.43 E224.4111
G1 X14.20 Y22.53 E224.4501
G1 X13.94 Y22.80 E224.4683
G1 X11.37 Y24.17 E224.6092
G1 X10.87 Y24.27 E224.6339
G1 X8.93 Y24.27 E224.7278
G1 X8.43 Y24.17 E224.7525
G1 X8.02 Y23.95 E224.7750
G1 X7.34 Y24.26 E224.8111
G1 X5.16 Y24.70 E224.9188
G1 X3.42 Y24.34 E225.0047
G1 X2.64 Y24.02 E225.0455
G1 X2.25 Y24.27 E225.0680
G1 X0.59 Y24.55 E225.1494
G1 X0.16 Y24.55 E225.1703
G1 X-0.28 Y24.82 E225.1952
G1 X-1.90 Y25.45 E225.2793
G1 X-2.40 Y25.55 E225.3040
G1 X-4.36 Y25.55 E225.3989
G1 X-4.87 Y25.45 E225.4240
G1 X-5.53 Y25.18 E225.4585
G1 X-6.27 Y25.33 E225.4951
G1 X-8.01 Y24.97 E225.5811
G1 X-8.76 Y24.66 E225.6203
G1 X-9.30 Y24.24 E225.6534
G1 X-9.91 Y24.36 E225.6835
G1 X-11.64 Y24.01 E225.7689
G1 X-12.40 Y23.70 E225.8087
G1 X-14.55 Y22.02 E225.9407
G1 X-15.00 Y21.93 E225.9629
G1 X-17.55 Y20.57 E226.1028
G1 X-17.88 Y20.24 E226.1254
G1 X-19.41 Y20.24 E226.1994
G1 X-19.91 Y20.14 E226.2241
G1 X-22.46 Y18.78 E226.3639
G1 X-23.13 Y18.11 E226.4098
G1 X-24.19 Y16.44 E226.5055
G1 X-24.59 Y16.23 E226.5274
G1 X-25.25 Y15.56 E226.5729
G1 X-26.44 Y13.68 E226.6805
G1 X-26.58 Y12.88 E226.7198
G1 X-26.80 Y12.66 E226.7349
G1 X-27.98 Y10.78 E226.8423
G1 X-28.02 Y10.56 E226.8531
G1 X-29.02 Y10.03 E226.9079
G1 X-30.42 Y8.64 E227.0034
G1 X-30.71 Y8.19 E227.0293
G1 X-31.45 Y6.39 E227.1235
G1 X-31.56 Y5.87 E227.1492
G1 X-31.56 Y4.69 E227.2063
G1 X-32.33 Y3.63 E227.2697
G1 X-32.56 Y3.10 E227.2977
G1 X-32.96 Y1.19 E227.3921
G1 X-32.92 Y0.38 E227.4314
G1 X-33.39 Y-0.25 E227.4694
G1 X-34.14 Y-2.06 E227.5642
G1 X-34.25 Y-2.63 E227.5923
G1 X-34.25 Y-4.58 E227.6867
G1 X-34.14 Y-5.15 E227.7148
G1 X-33.39 Y-6.96 E227.8096
G1 X-32.77 Y-7.74 E227.8578
G1 X-32.73 Y-8.15 E227.8777
G1 X-33.14 Y-9.15 E227.9300
G1 X-33.26 Y-9.72 E227.9582
G1 X-33.26 Y-11.67 E228.0526
G1 X-33.14 Y-12.25 E228.0813
G1 X-32.62 Y-13.51 E228.1472
G1 X-32.62 Y-15.12 E228.2251
G1 X-33.01 Y-16.08 E228.2753
G1 X-33.13 Y-16.65 E228.3035
G1 X-33.13 Y-18.60 E228.3978
G1 X-33.01 Y-19.18 E228.4265
G1 X-32.26 Y-20.98 E228.5209
G1 X-31.94 Y-21.47 E228.5492
G1 X-30.57 Y-22.84 E228.6430
G1 X-30.26 Y-23.05 E228.6611
G1 X-29.60 Y-24.65 E228.7448
G1 X-29.27 Y-25.14 E228.7734
G1 X-27.90 Y-26.51 E228.8672
G1 X-27.41 Y-26.84 E228.8958
G1 X-25.60 Y-27.59 E228.9906
G1 X-24.90 Y-27.70 E229.0249
G1 X-24.75 Y-27.93 E229.0382
G1 X-23.37 Y-29.31 E229.1326
G1 X-22.88 Y-29.63 E229.1610
G1 X-21.08 Y-30.38 E229.2553
G1 X-20.51 Y-30.50 E229.2835
G1 X-19.77 Y-30.50 E229.3194
G1 X-19.47 Y-30.70 E229.3368
G1 X-17.66 Y-31.45 E229.4316
G1 X-17.09 Y-31.57 E229.4598
G1 X-14.97 Y-31.53 E229.5624
G1 X-14.29 Y-31.82 E229.5982
G1 X-13.72 Y-31.93 E229.6263
G1 X-11.77 Y-31.93 E229.7207
G1 X-11.19 Y-31.82 E229.7492
G1 X-10.62 Y-31.58 E229.7792
G1 X-9.71 Y-31.58 E229.8232
G1 X-9.10 Y-32.19 E229.8649
G1 X-8.61 Y-32.51 E229.8933
G1 X-6.80 Y-33.26 E229.9881
G1 X-6.23 Y-33.38 E230.0163
G1 X-4.53 Y-33.38 E230.0985
G1 X-4.02 Y-33.48 E230.1237
G1 X-2.89 Y-33.48 E230.1784
G1 X-1.20 Y-34.18 E230.2669
G1 X-0.63 Y-34.30 E230.2951
G1 X1.33 Y-34.30 E230.3899
G1 X1.90 Y-34.18 E230.4181
G1 E225.9181
G1 Z0.900 F300
M204 S8000
G1 X-29.80 Y-23.63 F12000
G1 Z0.700 F300
G1 E230.4181 F1800
G1 X-29.80 Y-23.63 F12000
M204 S10000
G1 X-26.38 Y-27.05 E230.6522 F1800
G1 X-25.55 Y-27.40 E230.6958
G1 X-24.78 Y-27.52 E230.7335
G1 X-24.59 Y-27.81 E230.7503
G1 X-23.25 Y-29.15 E230.8420
G1 X-22.79 Y-29.45 E230.8685
G1 X-21.53 Y-29.98 E230.9347
G1 X-32.93 Y-18.58 E231.7149
G1 X-32.92 Y-16.66 E231.8078
G1 X-18.84 Y-30.74 E232.7715
G1 X-17.60 Y-31.26 E232.8365
G1 X-17.07 Y-31.36 E232.8626
G1 X-16.31 Y-31.35 E232.8994
G1 X-32.44 Y-15.22 E234.0033
G1 X-32.42 Y-13.47 E234.0880
G1 X-32.52 Y-13.22 E234.1010
G1 X-14.09 Y-31.65 E235.3624
